-----BEGIN PGP PUBLIC KEY BLOCK-----

mDMEamxBfhYJKwYBBAHaRw8BAQdAbDRrMoNhsfqVawbgyjJsKZwQ9el0qBKI15xu
mSZg1eq0NU1hZ251cyBLdWxrZSAoUUVNVSkgPG1hZ251c2t1bGtlQGxpbnV4Lm1p
Y3Jvc29mdC5jb20+iJYEExYIAD4WIQRSVbYXeYKRaHAiMcpo2btW3ReEFwUCamxB
fgIbAQUJEswDAAULCQgHAgYVCgkICwIEFgIDAQIeAQIXgAAKCRBo2btW3ReEF/oI
AQCB7Pi+PRN0CvMiOBRZapeaRLAbHPUdC09WP6U9FrcnXQEAzZmcb5Ewb2Kg5rDU
kKdDoCPP22zigI65b//vK9LdrwOJAjMEEAEKAB0WIQTYD0mvSm75qpwqLC2YQIfU
/mqzSwUCao/R7gAKCRCYQIfU/mqzS4BeEACa2j9+KMtgVnwz7M/KaNwO12zOZGkL
8QmasAXHsttKhEPugzWQP/ed0j1WtC2toDL+KpU3brDz6jKhHQJDKeo9jf4MsHWl
6BuvPIMgBfPxBQ/ePTV0wNPRFPq/pPc4w8Gu7Pyf1z4qydbTyRgstNnkaDqHsJc9
d/CMFO2QrK+6mW7IBQP5hJ4HEOaGfB8/vGhOh/ra+VNnG1uuvwS/ltDreWyjVL5z
7jXkPENPJbvsXyeMoNrdSv3sCcXZOF/3h3norUDb0TEv3jvVHJ0JQ8wZtPZO8Etz
JYDOPxMGcDHZWNeCqT4SK7DOYdgwO4MyjuzTvsROLr79dMTvGwNdz6Z0LzqCHdRW
CHYn8kBRkMlwaozWeuwK/JLnaWerpCjO390x1nsoHce7i2KNYynG5J5ZD/DqFlgL
8xJV7op2QfHx68UQXQG/4aPX4w1KPQEgWQ4b3ZTp2TaaOKgkmLTcegSPTeQ6XwBr
f7y1a2hG6QIOSr56bJ8kgRncb9ecnRg+F5XWw45Vl7V0n/7uVuofDrw8gzLR9Y6t
/kbimuh6HLcV24LwJooQLrlKnvHmw1Or3IL/XXrkhMcSx2oeX9DtH6AsmegW3lUe
9ONn54I0jXWa5B3XPMbs48JUMMYDZQng4JNZ0NdmfvQoH46dMga/Npb6ocLMHASS
UxWp4OS0P19f9bgzBGpsQlMWCSsGAQQB2kcPAQEHQAjLHVFBIdsRS2yOB+xzjFD/
14H5W6L6FySLyTFWVyTriPUEGBYIACYWIQRSVbYXeYKRaHAiMcpo2btW3ReEFwUC
amxCUwIbAgUJEswDAACBCRBo2btW3ReEF3YgBBkWCAAdFiEEiDHdV8mBauerUqvT
3fXXkDgsC4oFAmpsQlMACgkQ3fXXkDgsC4odVgEA/Iw/cS5oyGU+hCA5I0OnOdne
aBng0drvQIFLRN8HPA0BAJYvfhf/184akRw2NDtAYqSlTKZHZoDc7clr4dXS+7gA
9mMA/02pnoKn+6RcFMnQBbhMTh0qsAvX7Cf2+6TuuTJcL+o7AQDknbxdcPZpK2JW
GX8mCMXSadpAaFUJVA6riRQMAjSsCw==
=HGBq
-----END PGP PUBLIC KEY BLOCK-----
